X:1
T:In the Secret of His Presence
T:In the Secret of His Presence
T:George Coles Stebbins
T:Ellen Lakshmi Goreh, 1883
T:Public Domain Courtesy of the Cyber Hymnal™
T:Public Domain Courtesy of the Cyber Hymnal™
C:George Coles Stebbins
Z:Public Domain
Z:Courtesy of the Cyber Hymnal™
%%score 1 ( 2 3 ) ( 4 5 )
L:1/8
Q:1/4=80
M:2/4
K:G
V:1 treble 
V:2 treble 
V:3 treble 
V:4 bass 
V:5 bass 
V:1
 D/D/ | Dd dd | BA EG | GF ED | D3 D/D/ | DF FA | AG GB | BA EA | A3 D/D/ | Dc cc | cB BB | BF GA | %12
w: 1.~In the|sec- ret of His|pre- sence how my|soul de- lights to|hide! Oh, how|pre- cious are the|les- sons which I|learn at Je- sus’|side! Earth- ly|cares can ne- ver|vex me, nei- ther|tri- als lay me|
w: 2.~When my|soul is faint and|thirst- y, ’neath the|sha- dow of His|wing There is|cool and plea- sant|shel- ter, and a|fresh and crys- tal|spring; And my|Sav- ior rests be-|side me, as we|hold com- mun- ion|
w: 3.~On- ly|this I know: I|tell Him all my|doubts, my griefs and|fears; Oh, how|pa- tient- ly He|list- ens! and my|droop- ing soul He|cheers: Do you|think He ne’er re-|proves me? What a|false Friend He would|
w: 4.~Would you|like to know the|sweet- ness of the|sec- ret of the|Lord? Go and|hide be- neath His|sha- dow: this shall|then be your re-|ward; And when-|e’er you leave the|si- lence of that|hap- py meet- ing|
 B3 B/B/ | Bd dd | dc GA |"^riten." _BB BB | !fermata!_B2 AG | D>D DD | D6 |] %19
w: low; For when|Sa- tan comes to|tempt me, to the|sec- ret place I|go, To the|sec- ret place I|go.|
w: sweet: If I|tried, I could not|ut- ter what He|says when thus we|meet, What He|says when thus we|meet.|
w: be, If He|nev- er, nev- er|told me of the|sins which He must|see, Of the|sins which He must|see.|
w: place, You must|mind and bear the|im- age of the|Mas- ter in your|face, Of the|Mas- ter in your|face.|
V:2
 [B,D] | [B,D][DB][DB][DB] | [EB][EA][CE][CG] | GFED | [B,D]3 [B,D] | [CD][CDF][CDF][CDA] | %6
 [B,DA][B,DG][B,DG][DGB] | [GB][GA]E[GA] | [DFA]3 D | D[Dc][Ec][Fc] | [Ec][DB][DB][DB] | %11
 [^DB][DF] [EG][EA] | [^DB]3 [DB] | [DB][Dd][Gd][Gd] | [Gd][Gc]G[GA] | [G_B][GB][D=F_AB][DFAB] | %16
 !fermata![_EG_B]2 [EA][^CG] | D>D[CD][CD] | [B,D]6 |] %19
V:3
 x | x4 | x4 | C4 | x4 | x4 | x4 | ^C4 | x4 | x4 | x4 | x4 | x4 | x4 | x4 | x4 | x4 | x4 | x6 |] %19
V:4
 [G,,G,] | G,G,G,G, | G,G,G,E, | A,A,G,F, | [G,,G,]3 [G,,G,] | F,A,A,F, | G,G,G,G, | E,E,G,A, | %8
 A,3 F, | F,F,G,A, | G,G,G,G, | F,B,[E,B,][C,A,] | F,3 F, | [G,,G,]B,B,B, | CCCC | %15
"^riten." DD_B,B, | !fermata![_E,_B,]2 [E,C][E,B,] | [G,B,]>[G,B,]A,[F,A,] | [G,,G,]6 |] %19
V:5
 x | G,,4 | C,4 | D,4 | x4 | D,4 | G,,4 | A,,4 | D,4 | D,4 | G,,4 | B,,2 x2 | B,,4 | x2 =F,2 | %14
 E,2 _E,2 | D,2 _B,,2 | x4 | D,4 | x6 |] %19

